X:1
T:The Name of Life
T:The Name of Life
T:Joe Hisaishi
C:Joe Hisaishi
%%score { ( 1 3 ) | ( 2 4 ) }
L:1/8
Q:1/4=90
M:4/4
K:C#
V:1 treble nm="Piano" snm="Pno."
V:3 treble 
V:2 bass 
V:4 bass 
V:1
!mp! !arpeggio![Fce]3 d3 g2 | !arpeggio![GBe]3 d- d4 | !arpeggio![EGd]3 c3 g2 | %3
 !arpeggio![EAd]3 [Ac]3 Bc | !arpeggio![Fce]3 d3 g2 | !arpeggio![GBe]3 d3 dc | B8 | z4 EGBd || %8
 z"^soft, tender" (eee edea | ed d6) | z (ddd dcdg | dcB[Ac]- [Ac]2) z (A/B/ | %12
 [Fc]ccc cc z) (A/B/ | [Gc]ccc Bc) z (A/B/ | [=Ac]ccc c g2 c |!<(! d8)!<)! |!mf! z (eee edea | %17
 e2 d6) | z (ddd dcdg | !arpeggio![EGd]c c4) z (A/B/ | [Fc]c[Ec-][Cc]- [Cc]2) z (A/B/ | %21
 [Gc]cc[EGc] dc) z (A/B/ | [=Ac]ccc c g2 c | !arpeggio![F=Ad]4) e2 f2 || %24
!mp! !arpeggio![cdg]g z g [=Ag]f[Be]d | de c4 ef | gggg-"_cresc." [=Ag]f[Be]d | %27
 [Bd]e- e4 [Ac][cd] |!mf! !arpeggio![Ace]3 A c4 |!<(! [Fc]6 ([ca][db]!<)![Q:1/4=80] | %30
[Q:1/4=90]!f! !arpeggio![ec']c'd'c' b2) (eg | !arpeggio![cea]agf g2) z (g | %32
 !arpeggio![cg]ff=e f2 cf |!>(! g3 =a [Bg]2)!>)!!mp! ([c^a][db] | !arpeggio![ec']c'd'c' b2) (eg | %35
 aagf g2) z (g/g/ | gff=e f2) (g=a |!<(! !arpeggio![=Bf=b]=aag- g2) (3gab!<)! |!f! c'6 =a=b | %39
 !arpeggio![c=ac']2 z2 z!mf! c'bc' | !arpeggio![f=ad']4 z gc'b ||!mp! c'8 | z A,B,[=GB]- [GB]4 | %43
 z B,C[EA]- [EA]4 | z G,A,[DG]- [DG]2 =G2 | z B,C[EA]- [EA]4 | z A,B,[=Gd]- [Gd]2 [DG]2 | %47
 z B,C[EA]- [EA]2 =G2 | z[I:staff +1] D,E,[I:staff -1][DG]- [DG]2 A2 | ([CEFB]3 c3 d2 | %50
 [CEB]3 c3) (G2 | [DA]3 D2 FAd | [D=G]3 =F3- F2) || A(EEE EDEA | ED D6) | z (DDD DCDG | %56
 DC C4) z (A/B/ | cccc cc) z (A/B/ | cccc Bc) z (A/B/ | cccc c g2 c | !arpeggio![FGd]8) | %61
!mf! z (eee edea | ed d2) (3z (bc' (3bag | !arpeggio![Gd]4) (3z (Ae (3B=gd | %64
 !arpeggio![ed']c'bc') z2 (3(a/b/a/ (3b/c'/d'/ | e'e [ae'] d'2 c'2) (e | [ge']e e' d'2 c'2) (e | %67
!8va(! c'' (3=b'/=a'/g'/ (3f'/=e'/d'/ (3c'/=b/=a/ (3g/f/=e/!8va)! (3d/c/=B/ (3=A/G/F/ (3:2:2=E/D | %68
 C3) z e2 f2 ||!mp! !arpeggio![cdg]g z g [=Ag]f[Be]d | de c4 ef | gggg-"_cresc." [=Ag]f[Be]d | %72
 [Bd]e- e4 [Ac][cd] |!mf! !arpeggio![Ace]3 A c4 |[Q:1/4=80]!<(! [Fc]6 [ca][db]!<)! | %75
[Q:1/4=90]!f! (!arpeggio![ec'e'][c'e'][d'f'][c'e'] [bd']2) ([eg][gb] | %76
 !arpeggio![eac'][ac'][gb][fa] [eg]2) z g | !arpeggio![cg]ff=e f2 cf | %78
!>(! g3 =a [Bg]2 ([c^a]!>)!!mp![db] | !arpeggio![ec'e'][c'e'][d'f'][c'e'] [bd']2) ([eg][gb] | %80
 !arpeggio![eac'][ac'][gb][fa] [eg]2) z (g/g/ | gff=e f2) (g=a | %82
!<(! !arpeggio![=Bf=b]=aag- g2) (3(gab!<)! |!f! c'6) =a=b |!<(! !arpeggio![c=ac']2 z2 z c'bc'!<)! | %85
 !arpeggio![f=ad']4 z!<(! gc'b!<)! ||!ff! !arpeggio![egc']6 (c2 | !arpeggio![CEB]3 [EA]3- [EA]2) | %88
 ([CDG]3 [DGB]3 c2 | !arpeggio![CFA]3 [CE]3) AB | !arpeggio![EAc]6 c2 | %91
!<(! !arpeggio![EGc]6 c2!<)! | !arpeggio![EFAe]6 e2 |!>(! !arpeggio![Ace]3 [Ad]- [Ad]4!>)! | %94
!mf! [Ace]4 [GB]4 | [FA]4 [CDG]3 G |!<(! GFF=E F2 CF!<)! |!>(! G3 =A G2 cd!>)! | %98
!mp! [Ae]2 [ec']2 [db]2 CE | F2 [fa]2 [deg]2 z (G |!<(! GFF=E F2) (AB | %101
 cBBA B2)[Q:1/4=82] (cd!<)! |[K:E][Q:1/4=95]!f! eefe d2) (GB | ccBA B2) z B | BAA=G A2 EA | %105
 B3 =c B2 (9:8:9B/4d/4e/4f/4g/4a/4b/4c'/4d'/4 | (e'2 f'e'{d'e'} d') z (gb | %107
{c'd'} c'bc'd' b2) z (b | baa=g a2) (b=c' | %109
!<(! !arpeggio![=f=d']=c'c'b b2) (3([Bb][=cc'][=dd']!<)! |!ff! e'6) =c'=d' | %111
 !arpeggio![e=c'e']2 z2[Q:1/4=85] z e'd'e' | !arpeggio![a=c'f']4 z be'd' || %113
[Q:1/4=92]"_Broadly" [ge']3 [Ff]3 [Bb]2 | !arpeggio![Gdg]3 [Ff]- [Ff]4 | %115
 !arpeggio![FBf]3 [Ee]3 [Bb]2 | !arpeggio![GBf]3 [Ge]- [Ge]2 de | !arpeggio![Acg]3 [Ff]3 [Bb]2 | %118
!>(! !arpeggio![Gdg]3 [Ff]- [Ff]2 fe!>)! |!f! [GBd]8- | [GBd]4"_poco rit." (B,[Q:1/4=86]DGB) || %121
[Q:1/4=80]!mf!!>(! (!arpeggio![EAc]3 [=D=GB]- [DGB]4)!>)! | %122
[Q:1/4=75]!mp!!>(! (!arpeggio![A,CF]3 [=G,B,=CE]- [G,B,CE]4)!>)! | %123
!p! [B,CDF]4"_molto rit." F[Q:1/4=55]Bcd |!8va(! [c'f']8- | [c'f']8!8va)! |] %126
V:2
!ped!!8va(! F,CGA- A4!ped-up! |!ped! G,DAB- B4!8va)!!ped-up! |!ped! C,G,DE- E4!ped-up! | %3
!ped! A,,E,B,C- C4!ped-up! |!ped!!8va(! F,CGA- A4!ped-up! |!ped! G,DAB- B4!8va)!!ped-up! | %6
!ped! C,G,B,D- D4!ped-up! |!ped! C,G,B,D- D2 z2!ped-up! ||!ped!!8va(! F,CGA- A4!ped-up! | %9
!ped! G,DAB- B4!8va)!!ped-up! |!ped! C,G,B,E- E4!ped-up! |!ped! A,E- E2 z4!ped-up! | %12
!ped!!8va(! D,A,EF- F4!ped-up! |!ped! E,CDG- G4!ped-up! |!ped! F,CG=A- A4!8va)!!ped-up! | %15
!ped! G,,D,G,A, B,4!ped-up! |!ped! F,,,C,A,C, [B,CE]4!ped-up! |!ped! G,,,D,A,D, [B,E]4!ped-up! | %18
!ped! C,,E,B,E, [CE]4!ped-up! |!ped! A,,,E,B,E, [CE]4!ped-up! |!ped! D,,A,,E,C,- C,4!ped-up! | %21
!ped! E,,C,G,[E,G,]- [E,G,]4!ped-up! |!ped! F,,C,G,[=A,=E]- [A,E]4!ped-up! | %23
!ped! F,,D,F,=A,!8va(! CFGc!ped-up!!8va)! ||[K:treble]!ped! F,C A2 E,2 =A,2!ped-up! | %25
!ped! A,EGA G,2 C2!ped-up! |!ped! F,C A2 E,2 =A,2!ped-up! |[K:bass]!ped! A,,C,- C,2 G,,4!ped-up! | %28
!ped! D,,!p!A,,E,=G,!8va(! CD=GA!ped-up!!8va)! |"^rit."!ped! F,,!8va(!F,A,C FA- A2!ped-up!!8va)! | %30
"^a tempo"!ped! (A,,E, [B,C]2) (G,,D, [B,C]2)!ped-up! |!ped! (F,,C, [B,CE]2) (E,,C, C2)!ped-up! | %32
!ped! (=E,,=B,, [G,=B,]2) (D,A, C2)!ped-up! |!ped! (=D,G, C2) (G,,^D, G,2)!ped-up! | %34
!ped!!8va(! (A,E c2) (G,D c2)!ped-up! |!ped! (F,C [FA]2) (E,C [EG]2)!ped-up! | %36
!ped! (=E,G, [CG]2) (D,=A, [CF]2)!ped-up! |!ped! (=D,=A, [CF]2) (C,G, [CE]2)!8va)!!ped-up! | %38
!ped! ([F,=A,]3 [A,C]2) C[I:staff -1]=AG!ped-up! |!ped![I:staff +1] [D,F,]8!ped-up! | %40
!ped! G,,D,A,[I:staff -1][CFG]- [CFG]4!ped-up! ||!ped![I:staff +1] [F,CE]8!ped-up! | %42
!ped! [F,B,=G]8!ped-up! |!ped! [F,CE]8!ped-up! |!ped! [D,A,D]8!ped-up! |!ped! [F,CE]8!ped-up! | %46
!ped! [F,B,=G]8!ped-up! |!ped! [F,CE]8!ped-up! |!ped! [D,A,D]8!ped-up! | %49
!ped! F,E, F, C2 F,2 F,!ped-up! |!ped! C,E, G, B,2 G,2 G,!ped-up! |!ped! [D,F,]A, C- C4 z!ped-up! | %52
!ped! z D, E, =A,3 E,2!ped-up! || %53
!ped! [A,,E,F,]3[K:treble]!8va(! [abe']- [abe']2!8va)! z2!ped-up! | %54
[K:bass]!ped! [D,G,B,]3[K:treble]!8va(! [abe']- [abe']2!8va)! z2!ped-up! | %55
[K:bass]!ped! [C,,C,]3[K:treble]!8va(! [abe']- [abe']2!8va)! z2!ped-up! | %56
[K:bass]!ped! [C,E,G,A,]3[K:treble]!8va(! [abe']- [abe']2!8va)! z2!ped-up! | %57
[K:bass]!ped! [F,,C,E,]8!ped-up! |!ped! [C,G,]8!ped-up! |!ped! [D,=E,G,]8!ped-up! | %60
!ped! G,,D,G,[A,CD]- [A,CD]4!ped-up! |!ped! F,,,C,A,C, !arpeggio![CEA]4!ped-up! | %62
!ped! G,,,D,A,D, [B,E]4!ped-up! |!ped! C,,E,B,E, [CE]4!ped-up! |!ped! A,,,E,B,E, [CE]4!ped-up! | %65
!ped! D,,A,,E,[C,G,]- [C,G,]4!ped-up! |!ped! E,,C,G,[CE]- [CE]4!ped-up! | %67
!ped! F,,C,G,[=A,=E]- [A,E]4!ped-up! |!ped! G,,D,F,[=A,B,]!8va(! CFGc!ped-up!!8va)! || %69
[K:treble]!ped! F,C A2 E,2 =A,2!ped-up! |!ped! A,EGA G,2 C2!ped-up! | %71
!ped! F,C A2 E,2 =A,2!ped-up! |[K:bass]!ped! A,,C,- C,2 G,,4!ped-up! | %73
!ped! D,,!p!A,,E,=G,!8va(! CD=GA!ped-up!!8va)! |"^rit."!ped! F,,!8va(!F,A,C FA- A2!ped-up!!8va)! | %75
"^a tempo"!ped! (A,,E, [B,C]2) (G,,D, [B,C]2)!ped-up! |!ped! (F,,C, [B,CE]2) (E,,C, C2)!ped-up! | %77
!ped! (=E,,=B,, [G,=B,]2) (D,A, C2)!ped-up! |!ped! (=D,G, C2) (G,,^D, G,2)!ped-up! | %79
!ped!!8va(! (A,E c2) (G,D c2)!ped-up! |!ped! (F,C [FA]2) (E,C [EG]2)!ped-up! | %81
!ped! (=E,G, [CG]2) (D,=A, [CF]2)!ped-up! |!ped! =D,=A, [CF]2 C,G, [CE]2!8va)!!ped-up! | %83
!ped! ([F,=A,]3 [A,C]2) C[I:staff -1]=AG!ped-up! |!ped![I:staff +1] [D,F,]8!ped-up! | %85
!ped! G,,D,A,[I:staff -1][CFG]- [CFG]4!ped-up! || %86
!ped![I:staff +1] (C,,G,,D,[E,G,]- [E,G,]4)!ped-up! |!ped! (F,,C,G,[F,A,]- [F,A,]4)!ped-up! | %88
!ped! (C,,G,,D,[E,G,]- [E,G,]4)!ped-up! |!ped! (F,,C,G,[F,A,]- [F,A,]4)!ped-up! | %90
!ped! (D,,A,,E,[F,A,F]- [F,A,F]4)!ped-up! |!ped! (E,,C, G, [CD]2 C2) (G,!ped-up! | %92
!ped! F,,C,G,[F,A,E]- [F,A,E]4)!ped-up! |!ped! (G,,F,A,[G,B,]- [G,B,]2) (A,B,!ped-up! | %94
!ped! CCDC B,2) (E,G,!ped-up! |!ped! A,A,G,F, G,4)!ped-up! |!ped! [=B,C=E]4 [D,G,C]4!ped-up! | %97
!ped! [D,F,C]4 [G,B,]2[K:bass] (A,B,!ped-up! |!ped! CCDC B,2) (E,G,!ped-up! | %99
!ped! A,A,G,F, G,4)!ped-up! |!ped! [G,=B,D]4 [D,F,A,C]4!ped-up! | %101
!ped! [E,A,C]4"^rit." [D,G,B,]4!ped-up! | %102
[K:E]!ped! ([C,,C,]G,"^con moto" E2) ([B,,,B,,]G, [DE]2)!ped-up! | %103
!ped! ([A,,,A,,]A, [B,DE]2) ([G,,,G,,]E, [EG]2)!ped-up! | %104
!ped! ([=G,,,=G,,]E, B,2) ([C,A,C]C, E,2)!ped-up! | %105
!ped! ([=C,B,=C]C, E,2) ([B,,,B,,]B,, D,2)!ped-up! |!ped! (C,G, E2) (B,,F, [DE]2)!ped-up! | %107
!ped! (A,,E, [A,C]2) (G,,E, [G,B,]2)!ped-up! |!ped! (=G,,=D, [=G,E]2) (F,,=C, [A,E]2)!ped-up! | %109
!ped! (=F,,=C, [C,E,]2) (E,,B,, [EG]2)!ped-up! |!ped! ([A,=C]3 [CE]2) E[I:staff -1]=cB!ped-up! | %111
!ped![I:staff +1] [F,A,]8!ped-up! |!ped! (B,,F,C[I:staff -1][EAB]- [EAB]4)!ped-up! || %113
!ped![I:staff +1] (A,,E,B,[A,C]- [A,C]4)!ped-up! |!ped! (B,,F,C[B,D]- [B,D]4)!ped-up! | %115
!ped! (E,,B,,F,[E,G,]- [E,G,]4)!ped-up! |!ped! (C,G,D[CE]- [CE]4)!ped-up! | %117
!ped! (A,,E,B,[A,C]- [A,C]4)!ped-up! |!ped! (B,,F,C[B,D]- [B,D]4)!ped-up! | %119
!ped! (E,,B,,F,G,- G,4)!ped-up! |!ped! (E,,B,,F,G,- G,4)!ped-up! ||!ped! (A,3 =G,- G,4)!ped-up! | %122
!ped! (=D,3 =C,- C,4)!ped-up! |!ped! B,,F,CD- D4-!ped-up! |!ped! D8-!ped-up! |!ped! D8!ped-up! |] %126
V:3
 x8 | x8 | x8 | x8 | x8 | x8 | x8 | x8 || x8 | x8 | x8 | x8 | x8 | x8 | x8 | x8 | x8 | x8 | x8 | %19
 x8 | x8 | x8 | x8 | x8 || x8 | z2 z2 =B2 z2 | x8 | z2 B,C EC z2 | x8 | x8 | x8 | x8 | x8 | x8 | %34
 x8 | x8 | x8 | x8 | z F=A G3 x2 | z CFc z4 | x8 || x8 | x8 | x8 | x8 | x8 | x8 | x8 | x8 | x8 | %50
 x8 | x8 | x8 || x8 | x8 | x8 | x8 | EDEA- A2 z2 | DCDG- G2 z2 | =ECDG- G z3 | x8 | x8 | x8 | x8 | %64
 x8 | x8 | x8 |!8va(! x5!8va)! x3 | x8 || x8 | z2 z2 =B2 z2 | x8 | z2 B,C EC z2 | x8 | x8 | x8 | %76
 x8 | x8 | x8 | x8 | x8 | x8 | x8 | z F=A G3 x2 | z CFc z4 | x8 || x8 | x8 | x8 | x8 | x8 | x8 | %92
 x8 | x8 | x8 | x8 | x8 | x8 | x8 | x8 | x8 | x8 |[K:E] x8 | x8 | x8 | x8 | x8 | x8 | x8 | x8 | %110
 z A=c B3 x2 | z EA"_rit."e z4 | x8 || x8 | x8 | x8 | x8 | x8 | x8 | x8 | x8 || x8 | x8 | x8 | %124
!8va(! x8 | x8!8va)! |] %126
V:4
!8va(! x8 | x8!8va)! | x8 | x8 |!8va(! x8 | x8!8va)! | x8 | x8 ||!8va(! x8 | x8!8va)! | x8 | x8 | %12
!8va(! x8 | x8 | x8!8va)! | x8 | x8 | x8 | x8 | x8 | x8 | x8 | x8 | x4!8va(! x4!8va)! || %24
[K:treble] x8 | x8 | x8 |[K:bass] x8 | x4!8va(! x4!8va)! | x!8va(! x7!8va)! | x8 | x8 | x8 | x8 | %34
!8va(! x8 | x8 | x8 | x8!8va)! | x8 | x8 | x8 || x[I:staff -1] B,C[EA]- [EA]4 | x8 | x8 | x8 | x8 | %46
 x8 | x8 | x8 |[I:staff +1] F,,8 | C,,8 | F,,8 | E,,8 || x3[K:treble]!8va(! x3!8va)! x2 | %54
[K:bass] x3[K:treble]!8va(! x3!8va)! x2 |[K:bass] x3[K:treble]!8va(! x3!8va)! x2 | %56
[K:bass] x3[K:treble]!8va(! x3!8va)! x2 |[K:bass] x8 | x8 | x8 | x8 | x8 | x8 | x8 | x8 | x8 | x8 | %67
 x8 | x4!8va(! x4!8va)! ||[K:treble] x8 | x8 | x8 |[K:bass] x8 | x4!8va(! x4!8va)! | %74
 x!8va(! x7!8va)! | x8 | x8 | x8 | x8 |!8va(! x8 | x8 | x8 | x8!8va)! | x8 | x8 | x8 || x8 | x8 | %88
 x8 | x8 | x8 | x8 | x8 | x8 | x8 | x8 | x8 | x6[K:bass] x2 | [E,A,]4 [E,G,]4 | F,4 [C,E,]4 | x8 | %101
 x8 |[K:E] x8 | x8 | x8 | x8 | x8 | x8 | x8 | x8 | x8 | x8 | x8 || x8 | x8 | x8 | x8 | x8 | x8 | %119
 x8 | x8 || x8 | x8 | x8 | x8 | x8 |] %126

